X:578
T:Reel 578
M:4/4
K:Gmaj
L:1/8
d2|g2bg fadf|gdbg ac'fa|g2bg fadc'|bgaf g2:|dc|BGdB gdec|BGdB Afdc|BGdB gdec|Acef g2gc'|bgaf gfdc|BGdB Afdc|BGdB gfec|Bgaf g2|
